X: 8941
T: Curragh Races, The
R: reel
M: 4/4
K: Adorian
|:EAcA EAcA|G2 Bc dBcA|EAcA EAcA|dBGA BA A2|
EAcA EAcA|G2 GA BGAB|cAA2 BABc|dBGA BA A2:|
|:c2 ec gcec|c2 eg dBGB|c2 ec gcec|dBGA BAA2|
c2 ec gcec|c2 eg dBGB|cAA2 BABc|dBGA BA A2:|

